!!!OTL: end of spring
**kern
*part1
*staff1
*
*
*clefG2
*k[b-e-a-d-]
*A-:
*M4/4
*MM104
=1
!LO:TX:a:t=[quarter]=104
4r
8a-L
8fJ
4.cc
[8cc-X
=2
8cc-L]
8b-
8a-
8a-J
2f
=3
*^
4f	4d-
8a-L	4ryy
8fJ	.
4.cc	4.c
*v	*v
[8cc-X
=4
*^
8cc-L]	8G
8b-	4.ryy
8a-	.
8a-J	.
8.f	8.F
*v	*v
16f
8a-L
16a-L
[16b-JJ
!!linebreak:original
=5
8b-L]
8b-'J
4r
4r
8fL
8a-J
=6
8b-L
8b-
8a-
8a-J
2r
=7
8b-L
8b-J
8.b-L
[16a-Jk
8a-L]
8f
8e-
8d-J
=8
8B-L
8d-
8f
[8e-J
4e-]
8r
16a-LL
[16b-JJ
=9
16b-KL]
8.dd-J
4r
4r
8a-L
16a-L
16a-JJ
!!linebreak:original
=10
8b-L
8b-
8a-
8fJ
4r
8r
16r
[16b-
=11
8b-L]
8b-J
8.b-L
[16a-Jk
8a-L]
8f
8e-
8d-J
=12
8e-L
8d-J
8.fL
[16e-Jk
16e-LL]
16d-J
8B-J
4r
=13
8G
8.fL
8.e-J
8.e-L
16e-Jk
8.r
[16f
!!linebreak:original
=14
*^
8fL]	8A-
*v	*v
16fL
[16fJJ
16fKL]
8e-
16fJk
16ffLL
16ffJ
8ffJ
8ee-L
8ffJ
=15
8G
8.fL
8.e-J
8.d-L
16e-Jk
4r
=16
8GL 8c
8e-J
16e-LL
[16d-J
[8FJ [8A- 8d-_
8.F] 8.A-] 8.d-]
16r
4r
=17
8G
8f
8e-L
16d-L
16e-JJ
4r
8r
16e-LL
[16fJJ
!!linebreak:original
=18
*^
16fKL]	16F 16A-
*v	*v
8a-
[16a-Jk
16a-LL]
16f
16c 16e-
16fJJ
16raa
8aa-L
[16aa-Jk
16aa-LL]
16ff
16ee-
16ffJJ
=19
8G
8f
8e-L
16d-L
16e-JJ
4r
8r
[8b-
=20
16b-KL]
8.b-J
16a-LL
16fJJ
8f
16ccLL 16ccc
16ee-J 16eee-
8ffJ 8fff
16b-LL 16bb-
16a-JJ 16aa-
8r
!!pagebreak:original
=21
8F 8A- 8d-
8ccL
8b-
8a-J
8.C 8.E- 8.A-
8.b-L
8b-J
=22
2G 2B- 2e-
4.A- 4.c 4.f
[8cc
=23
*^
4cc]	4F 4A- 4d-
*v	*v
8.b-L
16fJk
8.cL 8.e- 8.a-
8.b-
8b-J
=24
4G 4B- 4e-
8gL
8fJ
4A- 4c 4f
8ccL
16ee-L
16a-JJ
=25
8FL 8A- 8d-
16a-L
16fJJ
16r
16e-LL
16a-JJ
16r
16E- 16A-
16e-LL
16a-
16a-JJ
8r
16a-LL
16a-JJ
!!linebreak:original
=26
8G 8B- 8e-
16a-LL
16ee-JJ
16r
16a-LL
16a-
16e-JJ
16A- 16c 16f
16e-LL
16a-
16a-JJ
8r
16a-LL
16a-JJ
=27
8FL 8A- 8d-
16a-L
16fJJ
16r
16e-LL
16a-JJ
16r
16E- 16A-
16e-LL
16a-
16a-JJ
8r
16a-LL
16a-JJ
=28
8A- 8c 8f
16a-LL
16ee-JJ
16r
16a-LL
16a-
16e-JJ
16G 16B-
16e-LL
16a-
16a-JJ
8aa-L
16a-L
16a-JJ
!!linebreak:original
=29
4f
8a-L
8fJ
8cc
4b-
8a-
=30
8cc-XL
8b-
8a-
8a-J
16a-KL
8.fJ
16a-KL
8.fJ
=31
4f
8a-L
8fJ
8cc
4b-
8A-
=32
8c-XL
8B-
8A-
8A-J
16A-LL
16FJJ
8cc
8b-L
8a-J
!!linebreak:original
=33
4f
8a-L
8fJ
8cc
4b-
8a-
=34
8cc-XL
8b-
8a-
8a-J
16a-KL
8.fJ
16aa-KL
8.ffJ
=35
4ff
8aa-L
8ffJ
8cccL
8bb-J
8r
[8ccc-X
!!linebreak:original
=36
4ccc-]
8.b-L 8.bb-
16fJk 16ff
8a-L 8aa-
8a-J 8aa-
16a-LL 16aa-
16fJJ 16ff
8r
=37!|:
4f 4ff
8a-L 8aa-
8fJ 8ff
8ccL 8ccc
8bb-J
8r
16aa-LL
16bb-JJ
=38
8cc-XL 8ccc-X
8b-' 8ee- 8gg 8ccc-
8a-
8a-J
16a-KL
8cJ 8f
16r
16fKL 16a-
8.cJ 8.f
!!pagebreak:original
=39
4f 4ff
8a-L 8aa-
8fJ 8ff
8ccL 8ccc
8bb-J
8r
16aa-LL
16bb-JJ
=40
8cc-XL 8ccc-X
8b-' 8ccn
8a-
8a-J 8cc-X
8r
8ccn 8cccn
8b-L 8cc 8bb-
16ee-L 16aa-
16a-JJ
=41:|!
4f 4ff
8a-L 8aa-
8fJ 8ff
8ccL 8ccc
8bb-J
8r
[8cc-X [8ccc-X
!!linebreak:original
=42
4cc-] 4ccc-]
8.b-L 8.bb-
16fJk 16ff
8a-L 8ee- 8aa-
8a-J 8b- 8aa-
16a-LL 16ee- 16aa-
16ffJJ
8r
=43
16a-KL
8.fJ
16a-KL
8.fJ
16a-KL
8.fJ
8a-L
16a-L
[16b-JJ
=44
16b-LL]
16dd-JJ
8r
4r
4r
8fL
8a-J
=45
8b-L
8b-
8a-
8a-J
4r
8.r
[16b-
!!linebreak:original
=46
8b-L]
8b-J
8.b-L
[16a-Jk
8a-L]
8f
8e-
8d-J
=47
8B-L
8d-
8f
[8e-J
4e-]
8r
16a-LL
[16b-JJ
=48
16b-KL]
8.dd-J
16dd-LL
16b-J
8a-'J
4r
8fL
8a-J
=49
8b-L
8b-
8a-
8b-J
4r
8.r
[16b-
!!linebreak:original
=50
8b-L]
8b-J
8.b-L
[16a-Jk
8a-L]
8f
8e-
8d-J
=51
8e-L
8d-J
8fL
16e-L
16d-JJ
8.B-L
16A-Jk
16B-LL
16d-JJ
8r
=52
8G
8.fL
8.e-J
8.e-L
16e-Jk
8.r
[16f
=53
*^
8fL]	8A-
*v	*v
16fL
[16fJJ
16fKL]
8e-
16fJk
16ffLL
16ffJ
8ffJ
8ee-L
8ffJ
!!linebreak:original
=54
8G
8.fL
8.e-J
8.d-L
16e-Jk
4r
=55
8GL 8c
8d-
[8d-
[8FJ [8A- 8d-_
8.F] 8.A-] 8.d-]
16r
4r
=56
8G
8f
8e-L
16d-L
[16e-JJ
16e-LL]
16fJJ
8r
8r
16e-LL
[16fJJ
=57
*^
16fKL]	16F 16A-
*v	*v
8a-
[16ccJk
16ccLL]
16b-
16c 16e- 16a-
[16ee-JJ
8ee-L]
8ccJ
4re
!!pagebreak:original
=58
16G
16d-
8f
8e-L
16d-L
16e-JJ
4r
8r
[8b-
=59
16b-KL]
8.b-J
16a-LL
16fJJ
8f
16ccLL 16ccc
16ee-J 16eee-
8ffJ 8fff
16a-LL 16aa-
16fJ 16ff
8a-J 8aa-
=60
8r
8cL 8f 8a- 8cc
8B- 8d- 8f 8b-
8A-J 8c 8e- 8a-
8.A-L 8.c 8.e- 8.a-
8.B- 8.e- 8.a- 8.b-
8B-'J 8e- 8a- 8b-
=61
4r
16r
16ee-LL
16aa-
16ffJJ
4r
8r
[8c [8f [8a- [8cc
!!linebreak:original
=62
4c] 4f] 4a-] 4cc]
8.B-L 8.d- 8.f 8.b-
16FJk 16f
8.A-L 8.c 8.e- 8.a-
8.B- 8.e- 8.a- 8.b-
8B-'J 8e- 8a- 8b-
=63
4r
8GL 8B- 8e- 8g
8FJ 8A- 8c 8f
8r
8eee-
8ccL
16ee-L 16ccc
[16a-JJ
=64
8a-L]
!LO:TX:a:i:t=cresc.
8c 8f 8a- 8cc
8B- 8d- 8f 8b-
8A-J 8d- 8f 8a-
8.A-L 8.c 8.e- 8.a-
8.B- 8.e- 8.a- 8.b-
8B-'J 8e- 8a- 8b-
!!linebreak:original
=65
4r
8r
[8a- [8aa-
4a-] 4aa-]
8e-L 8ee-
8fJ 8ff
=66
8r
8A- 8d- 8f 8a-
8A-L 8d- 8f 8a-
16A-L 16d- 16a-
16fJJ
8A- 8c 8e-
8r
8fL 8ff
8a-J 8aa-
!!linebreak:original
=67
16ccLL 16ccc
16ddd-J
8cccJ
16cccLL
16aa-J
8eee-J
!LO:TX:b:i:t=higher love (if you know what I mean ;)
32A-LLL
32c
32f
32a-
32cc
32ff
32aa-
32cccJJJ
32fffLLL
32aaa-
32cccc
32ffff
32aaaa-
32cccccJJJ
16r
=68!|:
4ff 4aa- 4ddd- 4fff
8aa-L 8aaa-
8ffJ 8fff
8cccL 8eee- 8aaa- 8cccc
8bbb-J
8r
16aaa-LL
16bbb-JJ
!!linebreak:original
=69
8ccc-XL 8cccc-X
8bb-' 8eee- 8ggg 8cccc-
8aa-
8aa-J
16aa-KL
8ccJ 8ff
16r
16ffKL 16aa-
8.ccJ 8.ff
=70
4ff 4aa- 4ddd- 4fff
8aa-L 8aaa-
8ffJ 8fff
8cccL 8eee- 8aaa- 8cccc
8bbb-J
8r
16aaa-LL
16bbb-JJ
!!pagebreak:original
=71
8ccc-XL 8cccc-X
8bb-' 8cccn
8aa-
8aa-J 8ccc-X
8r
8cccn 8ccccn
8bb-L 8ccc 8bbb-
16eee-L 16aaa-
16aa-JJ
=72:|!
4ff 4aa- 4ddd- 4fff
8aa-L 8aaa-
8ffJ 8fff
8cccL 8eee- 8aaa- 8cccc
8bbb-J
8r
[8ccc-X [8cccc-X
!!linebreak:original
=73
4ccc-] 4cccc-]
8.bb-L 8.bbb-
16ffJk 16fff
8aa-L 8eee- 8aaa-
8aa-J 8bb- 8aaa-
16aa-LL 16eee- 16aaa-
16fffJJ
8r
=74
8r
8ccL 8ff 8aa- 8ccc
8b- 8dd- 8ff 8bb-
8a-J 8cc 8ee- 8aa-
8.a-L 8.cc 8.ee- 8.aa-
8.b- 8.ee- 8.aa- 8.bb-
8b-'J 8ee- 8aa- 8bb-
!!linebreak:original
=75
8ccL
8ccJ
4r
8ffL
16ccL
16ee-JJ
16ccLL
16ee-
16cc
32b-L
32a-JJJ
=76
8f
8ccL 8ff 8aa- 8ccc
8b- 8dd- 8ff 8bb-
8a-J 8cc 8ee- 8aa-
8.a-L 8.cc 8.ee- 8.aa-
8.b- 8.ee- 8.aa- 8.bb-
8b-'J 8ee- 8aa- 8bb-
=77
8ffL
8cc
8g 8b- 8ee- 8gg
8fJ 8a- 8cc 8ff
16r
16ccLL
16ee-
16ee-JJ
16ccLL
16ff
16ee-
16ccJJ
!!linebreak:original
=78
24b-LL
24a-
24fJJ
8cc 8ff 8aa- 8ccc
8b-L 8dd- 8ff 8bb-
8a-J 8cc 8ee- 8aa-
8.a-L 8.cc 8.ee- 8.aa-
8.b- 8.ee- 8.aa- 8.bb-
8b-'J 8ee- 8aa- 8bb-
=79
8ffL
8ccJ
8ee-L
16ccL
16ee-JJ
16r
16ee-LL
16cc
16ee-JJ
24ccLL
24b-
24a-J
8fJ
=80
8r
8a- 8dd- 8ff 8aa-
8a-L 8dd- 8ff 8aa-
16a-L 16dd- 16aa-
16ffJJ
8a- 8cc 8ee-
8r
8fL 8ff
8a-J 8aa-
!!pagebreak:original
=81
8r
8.ffL
8cc
[16ee-Jk
8ee-]
8r
24ccLL
24ee-
24gg
24bb-
24eee-
24gggJJ
=82
8fL 8ff
8a- 8cc
8a- 8b- 8aa-
8fJ 8a- 8ff
8a-L 8cc
16bb-L
16a-JJ 16b-
8r
16b-LL 16aa-
16bb-JJ
=83
8cc-XL 8ccc-X
8b-' 8ee- 8gg 8ccc-
8a-
8a-J
16a-KL
8cJ 8f
16r
16fLL 16a-
16cJ 16f
[8a-J [8ccn
!!linebreak:original
=84
4f 4a-] 4cc] 4ff
8a-L 8b- 8aa-
16ffL
16fJJ
8a-L 8cc
16bb-L
16b-JJ 16cc
8r
16b-LL 16aa-
16bb-JJ
=85
8cc-XL 8ccc-X
8b-' 8ccn
8a-
8a-J 8cc-X
8r
8ccn 8cccn
8b-L 8cc 8bb-
16ee-L 16aa-
16a-JJ
!!linebreak:original
=86
8fL 8ff
8a- 8cc
8a- 8b- 8aa-
8fJ 8a- 8ff
8a-L 8cc
16bb-L
16a-JJ 16b-
8r
16b-LL 16aa-
16bb-JJ
=87
8cc-XL 8ccc-X
8b-' 8ee- 8gg 8ccc-
8a-
8a-J
16a-KL
8cJ 8f
16r
16fKL 16a-
8.cJ 8.f
=88
8r
8a- 8dd- 8ff 8aa-
8a-L 8dd- 8ff 8aa-
16a-L 16dd- 16aa-
16ffJJ
8a- 8cc 8ee-
8r
8fL 8ff
8a-J 8aa-
!!linebreak:original
=89
8r
8.ffL
8cc
[16ee-Jk
8ee-]
8r
4cc
=90
*^
8FL	2ryy
8cc	.
8b-	.
8fJ	.
8.a-L	8c
*v	*v
8.b-
8b-J
=91
8G
8r
4r
16A-KL 16a-
8.FJ 8.f
16a-LL
16fJ
[8ccJ
=92
*^
4cc]	4F
8.b-L	4ryy
16fJk	.
8.a-L	8c
*v	*v
8.b-
8b-J
!!linebreak:original
=93
8G
8r
4r
16A-KL
[8.FJ
4F_
=94
1F_
=95
1F]
==
*-
!!!system-decoration: {(s1,s2)}
